icons/1_Primary/TheraKey.svg

<svg xmlns="http://www.w3.org/2000/svg" width="1024" height="1024" fill="none">
   <g clip-path="url(#a)">
      <path fill="#F9DE81" d="M512 1024c282.77 0 512-229.23 512-512S794.77 0 512 0 0 229.23 0 512s229.23 512 512 512Z"/>
      <path fill="#fff" d="M722.37 375.81 512 256 301.63 375.81V615.1L570.13 768l58.47-33.44-58.13-33.09 151.9-86.37V375.81ZM664.24 581l-122.48 69.62-30.1 17.07L359.42 581V410l152.24-86.73L663.9 410v171h.34Z"/>
   </g>
   <defs>
      <clipPath id="a">
         <path fill="#fff" d="M0 0h1024v1024H0z"/>
      </clipPath>
   </defs>
</svg>

<svg width="1024" height="1024" viewBox="0 0 1024 1024" fill="none" xmlns="http://www.w3.org/2000/svg">
<g clip-path="url(#clip0_2_3639)">
<path d="M512 1024C794.77 1024 1024 794.77 1024 512C1024 229.23 794.77 0 512 0C229.23 0 0 229.23 0 512C0 794.77 229.23 1024 512 1024Z" fill="#F9DE81"/>
<path d="M722.37 375.81L512 256L301.63 375.81V615.1L570.13 768L628.6 734.56L570.47 701.47L722.37 615.1V375.81ZM664.24 581L541.76 650.62L511.66 667.69L359.42 581V410L511.66 323.27L663.9 410V581H664.24Z" fill="white"/>
</g>
<defs>
<clipPath id="clip0_2_3639">
<rect width="1024" height="1024" fill="white"/>
</clipPath>
</defs>
</svg>
